assets/sonr-icons/starz-fill.svg

<svg xmlns="http://www.w3.org/2000/svg" width="24" height="24" fill="none"><path fill="currentColor" d="M12 22c5.523 0 10-4.477 10-10S17.523 2 12 2 2 6.477 2 12s4.477 10 10 10M4 7.734l5.945 1.471L13.185 4l.442 6.11 5.945 1.471-5.678 2.309.442 6.11-3.949-4.685-5.678 2.309 3.24-5.205z"/></svg>

<svg xmlns="http://www.w3.org/2000/svg" width="24" height="24" fill="none" viewBox="0 0 24 24"><path fill="#000" d="M12 22C17.523 22 22 17.523 22 12C22 6.477 17.523 2 12 2C6.477 2 2 6.477 2 12C2 17.523 6.477 22 12 22ZM4 7.734L9.945 9.205L13.185 4L13.627 10.11L19.572 11.581L13.894 13.89L14.336 20L10.387 15.315L4.709 17.624L7.949 12.419L4 7.734Z"/></svg>
